X:122
T:Haste to the Wedding #1
C:Joe Buchanan's Scottish Tome - Page 231.3
I:231 3
Z:Carl Allison
R:Jig
M:6/8
K:D
A | "D"AFA Agf | "Em"ede "A7"fdB | "D"AFA "Bm"AdF | "Em"GFG "A7"E2 A |
"D"AFA Agf | "Em"ede "A7"fdB | "D"A2 g "A7"faf | "D"ded d2 :|
a | "D"afa afa | "G"bgb bgb | "D"afa "B7"agf | "Em"gfg "A7"efg |
"D"a2 z f2 z | "G"dee fdB | "D"A2 g faf | "Em"ded "D"d2 :|
W:Errata: First line erroneously labeled as key of A on original pdf. Entire tune now key of D.

